X: 1487
T: Gervasoni Waltz No 5
B: australian traditional tunes wiki
M:3/4
L:1/8
R: Waltz
Q: 1/4=100
K:C
V:1 
G2|"C"CE GC EG|A2G4|E2G3E|"G7"F6|zF AD FA|B2A3A|G2B2A2|"C"G6|
"C"CE GC EG|A2G4|E2G3E|"G7"F6|DF AD FA|B2A3A|"G7"G2"F"A2"G7"B2|"C"c6||
"C"eG g3e|"F"f2a3f|"C"g2g2e2|"G7"d4zc|"C"e2g3e|"F"f2a2ed|"G7"e2d2B2|"C"c6|
EG cE Gc|"F"F2A3G|"G7"B2A2BA|"C"G6|EG cE Gc|"G7"B2A2A2|"G7"G2"F"A2"G7"B2|"C"c2C4|
CE GC EG|E2G3G|E2G3E|"G7"F6|DF AD FA|B2A3A|G2B2A2|"C"G6|
CE GC EG|"F"B2A3G|"C"E2G3E|"G"F6|B2A2BA|"C"G2c2BA|"G7"G2"F"A2"G7"B2|"C"c6||
% abcbook-tune_id 6342d53ac5b6d19060c61c50


% abcbook-boost 0
% abcbook-tablature 
% abcbook-transpose 
% abcbook-lastupdated 1665324367525
% abcbook-soundfonts 
% abcbook-repeats 1
% NFF Book 2008

